packages/components/src/reaction_selection_menu/images/good_idea.svg

<?xml version="1.0" encoding="UTF-8"?>
<svg width="40px" height="40px" viewBox="0 0 40 40" version="1.1" xmlns="http://www.w3.org/2000/svg" xmlns:xlink="http://www.w3.org/1999/xlink">
    <title>02 Icons/Reactions/Good Idea/40x40</title>
    <g id="02-Icons/Reactions/Good-Idea/40x40" stroke="none" stroke-width="1" fill="none" fill-rule="evenodd">
        <g>
            <circle id="Oval" fill="#F2F4F4" fill-rule="nonzero" cx="20" cy="20" r="20"></circle>
            <path d="M19.9985,21.8634 C22.7057284,21.9959719 25.3382056,20.9523432 27.2192,19.0008 C27.2584463,18.7049352 27.2803171,18.4070243 27.2847,18.1086 C27.3132024,16.1424412 26.5593378,14.2455176 25.1890055,12.8352758 C23.8186731,11.425034 21.9441669,10.6170382 19.978,10.5891 C18.0102852,10.614937 16.1335553,11.4219538 14.7612288,12.8323755 C13.3889023,14.2427971 12.6335623,16.1409153 12.6616,18.1086 C12.6663627,18.3896466 12.6863922,18.6702268 12.7216,18.9491 C12.7541,18.9875 12.7894,19.0324 12.8194,19.0646 C14.7043847,20.9777544 17.3160069,21.9959054 19.9985,21.8634 L19.9985,21.8634 Z" id="Path" fill="#F5CD95" fill-rule="nonzero"></path>
            <path d="M22.9716,25.0606 C25.3238392,23.8919941 26.9230739,21.6103851 27.2192,19.0006 C25.3382056,20.9521432 22.7057284,21.9957719 19.9985,21.8632 C17.3159727,21.9957344 14.7043083,20.977581 12.8193,19.0644 C12.7893,19.0322 12.754,18.9873 12.7215,18.9489 C12.9814124,21.5419895 14.5695253,23.813968 16.9155,24.9489 C17.2598456,25.9509839 17.4459117,27.0006127 17.467,28.06 L22.4792,28.06 C22.5061902,27.0424619 22.6718505,26.0333603 22.9716,25.0606 Z" id="Path" fill="#F0B057" fill-rule="nonzero"></path>
            <path d="M20,35.0951 C20.9492565,35.084972 21.7950105,34.4933413 22.13,33.6051 L22.97,33.5951 C23.5973945,32.8382103 23.5973945,31.7419897 22.97,30.9851 C23.3866255,30.6141713 23.6249373,30.0829216 23.6249373,29.5251 C23.6249373,28.9672784 23.3866255,28.4360287 22.97,28.0651 L17.03,28.0651 C16.6133745,28.4360287 16.3750627,28.9672784 16.3750627,29.5251 C16.3750627,30.0829216 16.6133745,30.6141713 17.03,30.9851 C16.4026055,31.7419897 16.4026055,32.8382103 17.03,33.5951 L17.87,33.6051 C18.2049895,34.4933413 19.0507435,35.084972 20,35.0951 Z" id="Path" fill="#D5DDDA" fill-rule="nonzero"></path>
            <path d="M22.4792,28.06 C22.4920308,27.0409716 22.6580199,26.0296654 22.9716,25.06 C25.6128967,23.7498392 27.2839082,21.0563842 27.2846,18.108 C27.3131292,16.1418505 26.559287,14.2449267 25.1889705,12.8346819 C23.8186541,11.4244371 21.9441579,10.616438 19.978,10.5885 C18.0102762,10.6143372 16.1335363,11.4213507 14.7611939,12.8317694 C13.3888515,14.2421881 12.6334891,16.140306 12.6615,18.108 C12.6384861,21.0186375 14.2947687,23.6819663 16.9155,24.9485 C17.2760891,25.9481563 17.4641668,27.0018239 17.4717,28.0645" id="Path" stroke="#61746E" stroke-width="1.5" stroke-linecap="round" stroke-linejoin="round"></path>
            <line x1="19.9731" y1="20.933" x2="17.5312" y2="17.9597" id="Path" stroke="#61746E" stroke-width="1.5" stroke-linecap="round" stroke-linejoin="round"></line>
            <line x1="19.9731" y1="20.933" x2="22.415" y2="17.9597" id="Path" stroke="#61746E" stroke-width="1.5" stroke-linecap="round" stroke-linejoin="round"></line>
            <line x1="19.9731" y1="28.0651" x2="19.9731" y2="20.933" id="Path" stroke="#61746E" stroke-width="1.5" stroke-linecap="round" stroke-linejoin="round"></line>
            <path d="M22.9224,30.9877 C23.5430432,31.7461441 23.5409491,32.8375432 22.9174,33.5936 L22.0706,33.6036 C21.7570219,34.4960661 20.9141529,35.0932979 19.9682,35.0932979 C19.0222471,35.0932979 18.1793781,34.4960661 17.8658,33.6036 L17.0288,33.5936 C16.4009695,32.8377427 16.4030314,31.7411909 17.0337,30.9877 C16.6171688,30.6151686 16.3790836,30.0828183 16.3790836,29.524 C16.3790836,28.9651817 16.6171688,28.4328314 17.0337,28.0603 L22.9224,28.0603 C22.9377,28.0386 24.5336,29.14 22.9224,30.9877 Z" id="Path" stroke="#61746E" stroke-width="1.5" stroke-linecap="round" stroke-linejoin="round"></path>
            <line x1="17.0337" y1="30.9877" x2="22.9223" y2="30.9877" id="Path" stroke="#61746E" stroke-width="1.5" stroke-linecap="round" stroke-linejoin="round"></line>
            <line x1="20" y1="4.3527" x2="20" y2="5.8421" id="Path" stroke="#61746E" stroke-width="1.5" stroke-linecap="round" stroke-linejoin="round"></line>
            <line x1="13.0689" y1="6.2073" x2="13.8039" y2="7.5027" id="Path" stroke="#61746E" stroke-width="1.5" stroke-linecap="round" stroke-linejoin="round"></line>
            <line x1="7.9557" y1="11.2406" x2="9.2342" y2="12.0046" id="Path" stroke="#61746E" stroke-width="1.5" stroke-linecap="round" stroke-linejoin="round"></line>
            <line x1="26.9311" y1="6.2073" x2="26.1961" y2="7.5027" id="Path" stroke="#61746E" stroke-width="1.5" stroke-linecap="round" stroke-linejoin="round"></line>
            <line x1="32.0443" y1="11.2406" x2="30.7658" y2="12.0046" id="Path" stroke="#61746E" stroke-width="1.5" stroke-linecap="round" stroke-linejoin="round"></line>
        </g>
    </g>
</svg>

<svg xmlns="http://www.w3.org/2000/svg" width="40" height="40" viewBox="0 0 40 40">
    <g fill="none" fill-rule="evenodd">
        <g>
            <g transform="translate(-64 -76) translate(64 76)">
                <circle cx="20" cy="20" r="20" fill="#F2F4F4" fill-rule="nonzero"/>
                <path fill="#F5CD95" fill-rule="nonzero" d="M19.998 21.863c2.708.133 5.34-.91 7.221-2.862.04-.296.061-.594.066-.892.028-1.967-.726-3.863-2.096-5.274-1.37-1.41-3.245-2.218-5.211-2.246-1.968.026-3.844.833-5.217 2.243-1.372 1.41-2.127 3.309-2.1 5.277.005.28.025.561.06.84.033.038.068.083.098.116 1.885 1.913 4.497 2.93 7.18 2.798z"/>
                <path fill="#F0B057" fill-rule="nonzero" d="M22.972 25.06c2.352-1.168 3.951-3.45 4.247-6.06-1.88 1.952-4.513 2.996-7.22 2.863-2.683.133-5.295-.885-7.18-2.799-.03-.032-.065-.077-.098-.115.26 2.593 1.849 4.865 4.195 6 .344 1.002.53 2.052.551 3.111h5.012c.027-1.018.193-2.027.493-3z"/>
                <path fill="#D5DDDA" fill-rule="nonzero" d="M20 35.095c.95-.01 1.795-.602 2.13-1.49l.84-.01c.627-.757.627-1.853 0-2.61.417-.37.655-.902.655-1.46 0-.558-.238-1.089-.655-1.46h-5.94c-.417.371-.655.902-.655 1.46 0 .558.238 1.09.655 1.46-.627.757-.627 1.853 0 2.61l.84.01c.335.888 1.18 1.48 2.13 1.49z"/>
                <path stroke="#61746E" stroke-linecap="round" stroke-linejoin="round" stroke-width="1.5" d="M22.48 28.06c.012-1.019.178-2.03.492-3 2.64-1.31 4.312-4.004 4.313-6.952.028-1.966-.726-3.863-2.096-5.273-1.37-1.41-3.245-2.219-5.211-2.247-1.968.026-3.844.833-5.217 2.244-1.372 1.41-2.128 3.308-2.1 5.276-.023 2.91 1.634 5.574 4.255 6.84.36 1 .548 2.054.556 3.116M19.973 20.933L17.531 17.96M19.973 20.933L22.415 17.96M19.973 28.065L19.973 20.933"/>
                <path stroke="#61746E" stroke-linecap="round" stroke-linejoin="round" stroke-width="1.5" d="M22.922 30.988c.621.758.619 1.85-.005 2.606l-.846.01c-.314.892-1.157 1.49-2.103 1.49-.946 0-1.789-.598-2.102-1.49l-.837-.01c-.628-.756-.626-1.853.005-2.606-.417-.373-.655-.905-.655-1.464 0-.559.238-1.091.655-1.464h5.888c.016-.021 1.612 1.08 0 2.928zM17.034 30.988L22.922 30.988M20 4.353L20 5.842M13.069 6.207L13.804 7.503M7.956 11.241L9.234 12.005M26.931 6.207L26.196 7.503M32.044 11.241L30.766 12.005"/>
            </g>
        </g>
    </g>
</svg>
